packages/icons/src/svg/smiley-enthusiast.svg

<svg xmlns="http://www.w3.org/2000/svg" viewBox="0 0 16 16">
  <path d="M7.9878,11.9379 C7.2458,11.9379 6.5658,11.6849 6.0628,11.2559 C6.1258,10.9929 6.2848,10.8029 6.4758,10.8029 L9.5868,10.8029 C9.7568,10.8029 9.8988,10.9579 9.9738,11.1759 C9.4618,11.6529 8.7558,11.9379 7.9878,11.9379 M11.8038,9.7169 C11.7648,9.6589 11.6978,9.6219 11.6258,9.6219 C11.6258,9.6219 10.1248,10.0319 7.9688,10.0319 C5.8128,10.0319 4.4008,9.6129 4.4008,9.6129 C4.3298,9.6129 4.2618,9.6479 4.2228,9.7079 C4.1828,9.7659 4.1758,9.8399 4.2038,9.9069 C4.8178,11.3859 6.3178,12.4969 8.0238,12.4969 C9.6948,12.4969 11.1858,11.3889 11.8208,9.9179 C11.8508,9.8529 11.8438,9.7779 11.8038,9.7169 M10.3908,5.3359 C9.7278,5.3359 9.1908,5.8739 9.1908,6.5369 C9.1908,7.1989 9.7278,7.7369 10.3908,7.7369 C11.0528,7.7369 11.5908,7.1989 11.5908,6.5369 C11.5908,5.8739 11.0528,5.3359 10.3908,5.3359 M6.6478,6.5369 C6.6478,5.8739 6.1108,5.3359 5.4468,5.3359 C4.7848,5.3359 4.2478,5.8739 4.2478,6.5369 C4.2478,7.1989 4.7848,7.7369 5.4468,7.7369 C6.1108,7.7369 6.6478,7.1989 6.6478,6.5369 M12.8548,12.8549 C11.6108,14.0989 9.8978,14.8669 7.9998,14.8669 C6.1018,14.8669 4.3888,14.0989 3.1448,12.8549 C1.9008,11.6109 1.1338,9.8979 1.1338,7.9999 C1.1338,6.1029 1.9008,4.3889 3.1448,3.1449 C4.3888,1.9009 6.1018,1.1339 7.9998,1.1339 C9.8978,1.1339 11.6108,1.9009 12.8548,3.1449 C14.0988,4.3889 14.8658,6.1029 14.8658,7.9999 C14.8658,9.8979 14.0988,11.6109 12.8548,12.8549 M7.9998,-0.0001 C3.5808,-0.0001 -0.0002,3.5819 -0.0002,7.9999 C-0.0002,12.4179 3.5808,15.9999 7.9998,15.9999 C12.4178,15.9999 15.9998,12.4179 15.9998,7.9999 C15.9998,3.5819 12.4178,-0.0001 7.9998,-0.0001"/>
</svg>

<svg xmlns="http://www.w3.org/2000/svg" viewBox="0 0 16 16">
  <path d="M7.988 11.938a2.96 2.96 0 0 1-1.925-.682c.063-.263.222-.453.413-.453h3.11c.17 0 .313.155.388.373a2.908 2.908 0 0 1-1.986.762m3.816-2.221a.216.216 0 0 0-.178-.095s-1.501.41-3.657.41-3.568-.42-3.568-.42a.212.212 0 0 0-.197.295c.614 1.479 2.114 2.59 3.82 2.59 1.67 0 3.162-1.108 3.797-2.58a.207.207 0 0 0-.017-.2M10.39 5.336a1.2 1.2 0 1 0 0 2.4 1.2 1.2 0 0 0 0-2.4m-3.743 1.2a1.2 1.2 0 1 0-2.402 0 1.2 1.2 0 0 0 2.402 0m6.207 6.319A6.838 6.838 0 0 1 8 14.867a6.838 6.838 0 0 1-4.855-2.012A6.837 6.837 0 0 1 1.134 8a6.84 6.84 0 0 1 2.01-4.855A6.837 6.837 0 0 1 8 1.134c1.898 0 3.61.767 4.855 2.01A6.84 6.84 0 0 1 14.865 8a6.837 6.837 0 0 1-2.01 4.855M8 0a8 8 0 0 0-8 8 8 8 0 1 0 16 0 8 8 0 0 0-8-8"/>
</svg>
